src/assets/FacebookIcon.svg

<svg width="9" height="17" viewBox="0 0 9 17" fill="none" xmlns="http://www.w3.org/2000/svg">
<path d="M9 0.00309105L6.49966 0C4.07496 0 2.50865 1.64127 2.50865 4.18432V6.11227H0V9.60114H2.50865L2.50563 17H6.01563L6.01865 9.60114H8.89714L8.89487 6.11305H6.01865V4.47718C6.01865 3.69055 6.20092 3.29259 7.20302 3.29259L8.99244 3.29182L9 0.00309105Z" fill="#172E53"/>
</svg>

<svg xmlns="http://www.w3.org/2000/svg" width="9" height="17" fill="none" viewBox="0 0 9 17"><path fill="#172e53" d="M9 .003 6.5 0C4.075 0 2.509 1.641 2.509 4.184v1.928H0v3.49h2.509L2.506 17h3.51l.003-7.399h2.878l-.002-3.488H6.019V4.477c0-.786.182-1.184 1.184-1.184l1.79-.001z"/></svg>
